packages/core/src/svgs/lufc.svg

<svg width="24" height="24" viewBox="0 0 24 24" fill="none" xmlns="http://www.w3.org/2000/svg">
<g clip-path="url(#clip0_31_13416)">
<path d="M0 0H24V24H0V0Z" fill="#193076"/>
<path fill-rule="evenodd" clip-rule="evenodd" d="M11.9999 19.2858C13.9322 19.2858 15.7854 18.5182 17.1517 17.1518C18.5181 15.7855 19.2857 13.9324 19.2857 12.0001C19.2857 10.0678 18.5181 8.21463 17.1517 6.84829C15.7854 5.48196 13.9322 4.71436 11.9999 4.71436C10.0677 4.71436 8.21451 5.48196 6.84817 6.84829C5.48183 8.21463 4.71423 10.0678 4.71423 12.0001C4.71423 13.9324 5.48183 15.7855 6.84817 17.1518C8.21451 18.5182 10.0677 19.2858 11.9999 19.2858ZM11.9999 19.0029C12.9196 19.0029 13.8302 18.8218 14.6798 18.4699C15.5295 18.1179 16.3014 17.6021 16.9517 16.9518C17.602 16.3016 18.1178 15.5296 18.4697 14.6799C18.8217 13.8303 19.0028 12.9197 19.0028 12.0001C19.0028 11.0804 18.8217 10.1698 18.4697 9.32019C18.1178 8.47057 17.602 7.69858 16.9517 7.0483C16.3014 6.39803 15.5295 5.8822 14.6798 5.53027C13.8302 5.17835 12.9196 4.99721 11.9999 4.99721C10.1427 4.99721 8.36147 5.73501 7.04818 7.0483C5.73489 8.36159 4.99709 10.1428 4.99709 12.0001C4.99709 13.8573 5.73489 15.6385 7.04818 16.9518C8.36147 18.2651 10.1427 19.0029 11.9999 19.0029Z" fill="#FDDF04"/>
<path d="M8.14282 10.3072C8.14282 10.9286 8.13853 14.4943 12 16.7143C15.8614 14.4943 15.8571 10.9286 15.8571 10.3072V10.2858C15.8571 9.74575 15.7928 9.06432 15.69 8.82861C14.8542 7.68004 12.8828 7.32432 12 7.29004C11.1171 7.32432 9.14568 7.67575 8.30996 8.8329C8.18474 9.30664 8.12845 9.79595 8.14282 10.2858V10.3072Z" fill="#0060A4"/>
<path d="M11.1428 10.7144H12.8571V15.8572H11.1428V10.7144Z" fill="#FDDF04"/>
<path d="M11.3958 10.9199H12.6472V15.7971H11.3958V10.9199Z" fill="#FEFEF7"/>
<path d="M9.99863 10.9885L9.24006 11.8885L8.90149 11.6185L9.66006 10.7142L9.99863 10.9885ZM14.0186 10.9885L14.7386 11.8885L15.0772 11.6185L14.3572 10.7142L14.0186 10.9885ZM11.3443 13.8085L10.5001 14.7857L10.1829 14.5071L11.1429 13.5L11.3443 13.8085ZM12.6343 13.8085L13.4572 14.7814L13.7143 14.5714L12.8572 13.5L12.6343 13.8085ZM11.3015 10.9842L9.50149 13.1057L9.16292 12.8314L10.9629 10.71L11.3058 10.9842H11.3015ZM12.6772 10.9842L14.4772 13.1057L14.8201 12.8314L13.0072 10.7142L12.6729 10.9885L12.6772 10.9842ZM11.3958 12.3214L9.87435 14.0657L9.54006 13.7914L11.1429 12L11.3958 12.3214ZM12.6429 12.4285L14.1086 14.07L14.4386 13.7871L12.8572 12L12.6429 12.4285Z" fill="#FDDF04"/>
<path d="M9 10.7144H15V11.1429H9V10.7144Z" fill="#FDDF04"/>
<path fill-rule="evenodd" clip-rule="evenodd" d="M12.0386 8.55012L12.0086 8.40869L11.9829 8.55012C11.5886 8.56298 11.2586 8.82012 11.1471 9.17155L10.9714 9.15012L11.13 9.23583C11.0891 9.40399 11.0991 9.5805 11.1586 9.74301C11.2181 9.90551 11.3245 10.0467 11.4643 10.1487L11.3657 10.3458L11.5329 10.1915C11.6768 10.2794 11.8421 10.3259 12.0107 10.3259C12.1793 10.3259 12.3447 10.2794 12.4886 10.1915L12.6557 10.3458L12.5571 10.1487C12.6973 10.046 12.8039 9.90407 12.8634 9.74082C12.9229 9.57757 12.9327 9.40034 12.8914 9.23155L13.05 9.14583L12.8786 9.17155C12.8201 8.99378 12.7079 8.83854 12.5574 8.72723C12.407 8.61593 12.2257 8.55405 12.0386 8.55012ZM12.0386 8.55012C12.02 8.54966 12.0014 8.54966 11.9829 8.55012L11.85 9.26155L11.1429 9.17155L11.1257 9.23155L11.7471 9.56155L11.46 10.1487L11.5286 10.1915L12.0043 9.74583L12.4843 10.1915L12.5529 10.1487L12.2657 9.56155L12.8871 9.23155C12.8871 9.21012 12.8786 9.18869 12.87 9.17155L12.1671 9.26155L12.0343 8.55012H12.0386Z" fill="#FEFEF7"/>
<path d="M12.3343 9.4716C12.3343 9.6516 12.1843 9.79732 12.0001 9.79732C11.9567 9.79788 11.9137 9.78991 11.8734 9.77384C11.8332 9.75778 11.7965 9.73395 11.7654 9.7037C11.7344 9.67345 11.7096 9.63739 11.6925 9.59757C11.6754 9.55774 11.6663 9.51494 11.6658 9.4716C11.6658 9.28732 11.8158 9.1416 12.0001 9.1416C12.1843 9.1416 12.3343 9.28732 12.3343 9.4716Z" fill="#DAD777"/>
<path fill-rule="evenodd" clip-rule="evenodd" d="M12 15.5999C10.2171 14.4085 9.00001 12.4628 9.00001 10.3071C9.00056 9.95568 9.02634 9.60478 9.07715 9.25707C9.46547 8.88363 9.93482 8.60496 10.4486 8.44279C11.0357 8.24564 11.6357 8.15993 12 8.14279C12.3643 8.15993 12.9643 8.24564 13.5514 8.44279C14.0652 8.60496 14.5345 8.88363 14.9229 9.25707L14.9614 9.53564C14.9871 9.79279 15 10.0499 15 10.3071V10.3114C15 10.8385 14.9014 13.6542 12 15.6042V15.5999ZM15.8571 10.3071C15.8571 10.9285 15.8614 14.4942 12 16.7142C8.13429 14.4942 8.14286 10.9285 8.14286 10.3071C8.14286 9.84422 8.11715 9.25707 8.31001 8.82422C9.14572 7.67564 11.1171 7.31993 12 7.28564C12.8829 7.31993 14.8543 7.67136 15.69 8.8285C15.8829 9.25707 15.8571 9.84422 15.8571 10.3071Z" fill="#FDDF04"/>
<path d="M12.1928 13.4488H12.3257C12.3814 13.4488 12.4286 13.4102 12.4286 13.3631C12.4286 13.3202 12.3857 13.2859 12.3257 13.2859L12.12 13.2902C11.9486 13.2988 11.8328 13.3159 11.76 13.3417C11.7245 13.3523 11.6921 13.3714 11.6657 13.3974C11.64 13.4274 11.6314 13.4702 11.6528 13.5045C11.6743 13.5474 11.7386 13.5645 11.7814 13.5474C11.7953 13.5438 11.808 13.5369 11.8185 13.5271C11.829 13.5174 11.8369 13.5052 11.8414 13.4917L11.9486 13.4659L11.9057 13.5174C11.85 13.5859 11.7814 13.6459 11.7171 13.6802C11.6743 13.7017 11.6614 13.7402 11.6786 13.7788C11.7 13.8131 11.7471 13.8345 11.7943 13.8259L11.9443 13.8002L11.8843 13.8517C11.8286 13.8945 11.7428 13.9759 11.6614 13.9802C11.6057 13.9845 11.5671 14.0231 11.5757 14.0702C11.5757 14.1131 11.6271 14.1474 11.6828 14.1431C11.7471 14.1388 11.8114 14.1088 11.8671 14.0788C12.0201 13.9765 12.1597 13.8555 12.2828 13.7188C12.2926 13.7066 12.2979 13.6915 12.2979 13.6759C12.2979 13.6604 12.2926 13.6452 12.2828 13.6331C12.2701 13.6176 12.2534 13.6059 12.2346 13.5991C12.2157 13.5923 12.1954 13.5907 12.1757 13.5945L12.0686 13.6117L12.1928 13.4488ZM11.9486 14.1859C12.1028 14.1259 12.2614 14.1388 12.3643 14.1731C12.4157 14.1902 12.4414 14.2374 12.42 14.2845C12.3986 14.3274 12.3386 14.3488 12.2871 14.3317C12.2052 14.3077 12.1176 14.3122 12.0386 14.3445C11.9486 14.3788 11.8414 14.4688 11.7814 14.6702C11.7686 14.7217 11.8071 14.7817 11.8757 14.8117C11.91 14.8245 11.9486 14.8288 11.9828 14.8202C12.035 14.8063 12.0815 14.7763 12.1157 14.7345C12.1543 14.7002 12.2186 14.6917 12.2614 14.7217C12.3086 14.7517 12.3171 14.8074 12.2828 14.8459C12.21 14.9231 12.1286 14.9702 12.0386 14.9917C11.9541 15.0105 11.8658 15.003 11.7857 14.9702C11.6443 14.9102 11.5414 14.7731 11.58 14.6317C11.6528 14.3917 11.79 14.2545 11.9486 14.1859ZM12.36 11.6017C12.3741 11.6193 12.3807 11.6418 12.3783 11.6643C12.3758 11.6868 12.3647 11.7074 12.3471 11.7217L12.1928 11.8459C12.1371 11.8974 12.09 11.9488 12.0643 12.0045C12.0386 12.0602 12.03 12.1245 12.0043 12.1802C12.0386 12.2188 12.0814 12.2445 12.12 12.2574H12.1928C12.2285 12.2408 12.2583 12.2139 12.2786 12.1802C12.3043 12.1374 12.3557 12.1331 12.3943 12.1588C12.4328 12.1888 12.4371 12.2402 12.4114 12.2788C12.3721 12.3361 12.317 12.3807 12.2528 12.4074C12.1967 12.4291 12.1351 12.4321 12.0771 12.4159C12.008 12.3955 11.9448 12.3588 11.8928 12.3088C11.8328 12.3517 11.76 12.3645 11.6957 12.4031C11.686 12.409 11.6751 12.4128 11.6639 12.4143C11.6526 12.4157 11.6411 12.4148 11.6302 12.4116C11.6193 12.4084 11.6092 12.4029 11.6006 12.3955C11.5919 12.3881 11.5849 12.379 11.58 12.3688C11.5706 12.3493 11.5689 12.327 11.5753 12.3064C11.5816 12.2857 11.5956 12.2682 11.6143 12.2574L11.6786 12.2274C11.7386 12.2017 11.8243 12.1802 11.8543 12.1117C11.8843 12.0517 11.8886 11.9874 11.9186 11.9317C11.9614 11.8459 12.0257 11.7731 12.0857 11.7174L12.2443 11.5888C12.2786 11.5631 12.33 11.5674 12.36 11.6017ZM11.82 12.6131C11.7728 12.6302 11.7171 12.6131 11.6914 12.5702C11.6743 12.5274 11.6957 12.4759 11.7471 12.4588C11.8016 12.4372 11.86 12.427 11.9186 12.4288C11.9486 12.4288 11.9957 12.4417 12.03 12.4717C12.0643 12.5059 12.0728 12.5488 12.0728 12.5917C12.0636 12.6468 12.04 12.6986 12.0043 12.7417C11.94 12.8274 11.8586 12.9131 11.7986 12.9988C11.7728 13.0417 11.7643 13.0631 11.7643 13.0759C11.7643 13.1017 11.79 13.1102 11.8157 13.1145C11.9669 12.9309 12.1098 12.7407 12.2443 12.5445C12.2743 12.5017 12.33 12.4888 12.3814 12.5145C12.4243 12.5359 12.4414 12.5874 12.4157 12.6259C12.3386 12.7502 12.2314 12.8874 12.1371 13.0117C12.1568 13.0476 12.1829 13.0796 12.2143 13.1059L12.2228 13.0974C12.2528 13.0545 12.3086 13.0459 12.3557 13.0717C12.3986 13.0974 12.4114 13.1488 12.3814 13.1874C12.3637 13.2126 12.3407 13.2337 12.3141 13.2492C12.2875 13.2647 12.2578 13.2743 12.2271 13.2774C12.1725 13.2796 12.1189 13.2613 12.0771 13.2259C12.0533 13.2071 12.0317 13.1855 12.0128 13.1617L11.9357 13.2517C11.9181 13.2715 11.8935 13.2838 11.8671 13.2859C11.8084 13.2891 11.7498 13.2789 11.6957 13.2559C11.6314 13.2259 11.5714 13.1659 11.5714 13.0759C11.5757 13.0184 11.5966 12.9634 11.6314 12.9174C11.6914 12.8231 11.7771 12.7459 11.8457 12.6517L11.8757 12.6002C11.8567 12.6025 11.838 12.6068 11.82 12.6131Z" fill="#025DA7"/>
</g>
<defs>
<clipPath id="clip0_31_13416">
<rect width="24" height="24" fill="white"/>
</clipPath>
</defs>
</svg>

<svg xmlns="http://www.w3.org/2000/svg" width="24" height="24" fill="none" viewBox="0 0 24 24"><g clip-path="url(#a)"><path fill="#193076" d="M0 0h24v24H0z"/><path fill="#FDDF04" fill-rule="evenodd" d="M12 19.286a7.285 7.285 0 1 0 0-14.571 7.285 7.285 0 0 0 0 14.57m0-.283a7.003 7.003 0 1 0 0-14.006 7.003 7.003 0 0 0 0 14.006" clip-rule="evenodd"/><path fill="#0060A4" d="M8.143 10.307c0 .622-.004 4.187 3.857 6.407 3.861-2.22 3.857-5.785 3.857-6.407v-.021c0-.54-.064-1.222-.167-1.457C14.854 7.68 12.883 7.324 12 7.29c-.883.034-2.854.386-3.69 1.543a5.1 5.1 0 0 0-.167 1.453z"/><path fill="#FDDF04" d="M11.143 10.714h1.714v5.143h-1.714z"/><path fill="#FEFEF7" d="M11.396 10.92h1.251v4.877h-1.251z"/><path fill="#FDDF04" d="m9.999 10.989-.759.9-.339-.27.76-.905zm4.02 0 .72.9.338-.27-.72-.905zm-2.675 2.82-.844.977-.317-.279.96-1.007zm1.29 0 .823.972.257-.21-.857-1.071zm-1.332-2.825-1.8 2.122-.34-.275 1.8-2.121.344.274zm1.375 0 1.8 2.122.343-.275-1.813-2.117-.334.274zm-1.281 1.337-1.522 1.745-.334-.275L11.143 12zm1.247.107 1.466 1.642.33-.283L12.857 12z"/><path fill="#FDDF04" d="M9 10.714h6v.429H9z"/><path fill="#FEFEF7" fill-rule="evenodd" d="m12.039 8.55-.03-.141-.026.141a.9.9 0 0 0-.836.622l-.176-.022.159.086a.87.87 0 0 0 .334.913l-.098.197.167-.155a.92.92 0 0 0 .956 0l.167.155-.099-.197a.88.88 0 0 0 .334-.917l.159-.086-.171.026a.9.9 0 0 0-.84-.622m0 0h-.056l-.133.712-.707-.09-.017.06.621.33-.287.587.069.043.475-.446.48.445.069-.042-.287-.587.621-.33a.14.14 0 0 0-.017-.06l-.703.09-.133-.712z" clip-rule="evenodd"/><path fill="#DAD777" d="M12.334 9.472a.33.33 0 0 1-.334.325.33.33 0 0 1-.334-.325c0-.185.15-.33.334-.33s.334.145.334.33"/><path fill="#FDDF04" fill-rule="evenodd" d="M12 15.6c-1.783-1.191-3-3.137-3-5.293q0-.527.077-1.05a3.5 3.5 0 0 1 1.372-.814 6.1 6.1 0 0 1 1.551-.3c.364.017.964.103 1.551.3.514.162.983.44 1.372.814l.038.279q.039.386.039.771v.004c0 .527-.099 3.343-3 5.293zm3.857-5.293c0 .621.004 4.187-3.857 6.407-3.866-2.22-3.857-5.785-3.857-6.407 0-.463-.026-1.05.167-1.483.836-1.148 2.807-1.504 3.69-1.538.883.034 2.854.385 3.69 1.543.193.428.167 1.015.167 1.478" clip-rule="evenodd"/><path fill="#025DA7" d="M12.193 13.449h.133c.055 0 .103-.039.103-.086 0-.043-.043-.077-.103-.077l-.206.004a1.4 1.4 0 0 0-.36.052.2.2 0 0 0-.094.055c-.026.03-.035.073-.013.107.021.043.086.06.128.043a.09.09 0 0 0 .06-.055l.108-.026-.043.051a.7.7 0 0 1-.189.163c-.043.022-.056.06-.038.099a.11.11 0 0 0 .115.047l.15-.026-.06.052c-.055.043-.141.124-.223.128-.055.005-.094.043-.085.09 0 .043.051.077.107.073a.5.5 0 0 0 .184-.064 2.2 2.2 0 0 0 .416-.36.07.07 0 0 0 0-.086.11.11 0 0 0-.107-.038l-.107.017zm-.244.737a.63.63 0 0 1 .415-.013c.052.017.077.064.056.111-.021.043-.081.065-.133.048a.38.38 0 0 0-.248.012c-.09.035-.198.125-.258.326-.012.052.026.112.095.142a.2.2 0 0 0 .107.008.26.26 0 0 0 .133-.085c.038-.035.103-.043.145-.013.048.03.056.085.022.124a.5.5 0 0 1-.244.146.42.42 0 0 1-.253-.022c-.142-.06-.245-.197-.206-.338.073-.24.21-.377.369-.446m.411-2.584a.086.086 0 0 1-.013.12l-.154.124a.5.5 0 0 0-.129.159c-.025.055-.034.12-.06.175a.3.3 0 0 0 .116.077h.073a.2.2 0 0 0 .086-.077c.025-.043.077-.047.115-.021.039.03.043.081.017.12a.36.36 0 0 1-.158.128.28.28 0 0 1-.176.009.45.45 0 0 1-.184-.107c-.06.043-.133.056-.197.094a.08.08 0 0 1-.066.009.08.08 0 0 1-.05-.043.085.085 0 0 1 .034-.112l.065-.03c.06-.025.145-.047.175-.115.03-.06.035-.125.065-.18a.8.8 0 0 1 .167-.215l.158-.128a.086.086 0 0 1 .116.013m-.54 1.011a.11.11 0 0 1-.129-.043.085.085 0 0 1 .056-.111.4.4 0 0 1 .172-.03c.03 0 .077.013.111.043a.16.16 0 0 1 .043.12.3.3 0 0 1-.069.15c-.064.085-.145.171-.205.257-.026.043-.035.064-.035.077 0 .026.026.034.052.038q.226-.274.428-.57c.03-.042.086-.055.137-.03.043.022.06.073.035.112-.077.124-.185.261-.279.386a.3.3 0 0 0 .077.094l.009-.009c.03-.042.086-.051.133-.025.043.025.055.077.025.115a.21.21 0 0 1-.154.09.22.22 0 0 1-.15-.051.4.4 0 0 1-.064-.064l-.077.09a.1.1 0 0 1-.069.034.4.4 0 0 1-.171-.03c-.065-.03-.125-.09-.125-.18a.3.3 0 0 1 .06-.159c.06-.094.146-.171.215-.265l.03-.052a.3.3 0 0 0-.056.013"/></g><defs><clipPath id="a"><path fill="#fff" d="M0 0h24v24H0z"/></clipPath></defs></svg>
